Printex-remake/img/icons/catalog_sliced/01.svg

<svg width="111" height="63" viewBox="0 0 111 63" fill="none" xmlns="http://www.w3.org/2000/svg">
<path d="M51.4112 62.947L110.5 27.8243L68.3527 2.20544L56.3697 0.96582L93.5584 21.6262V29.8904L37.7754 62.947H51.4112Z" fill="#C7E0ED"/>
<path d="M56.5351 3.8584L1 35.5927L38.0234 56.749L93.5585 25.0146L56.5351 3.8584Z" fill="#D4EEFC"/>
<path d="M92.5507 21.709L38.0234 52.8674L2.00778 32.2871L56.5351 1.12861L92.5507 21.709Z" stroke="black" stroke-linejoin="bevel"/>
<path d="M1 35.262L38.0234 56.7487L93.5585 24.5186" stroke="black" stroke-linejoin="bevel"/>
<path d="M58.0225 32.7829L60.86 30.5833C62.5912 29.2413 64.5717 28.2563 66.6864 27.6855L67.4324 27.4841C69.8684 26.8266 72.0773 25.5132 73.8184 23.687C75.1763 22.2626 76.8235 21.1455 78.6491 20.4107L82.8149 18.7339" stroke="black" stroke-linejoin="bevel"/>
<path d="M65.4607 9.64307L63.4702 10.24C62.5405 10.5189 61.7761 11.1849 61.3727 12.0677V12.0677C60.8629 13.1833 59.7873 13.9339 58.5643 14.0275L58.1815 14.0568C57.1003 14.1396 56.1494 14.8032 55.6986 15.7895V15.7895C55.2479 16.7758 54.297 17.4394 53.2157 17.5222L52.6032 17.5691C51.522 17.6519 50.5711 18.3155 50.1203 19.3018V19.3018C49.6696 20.2881 48.7187 20.9517 47.6374 21.0345L46.971 21.0855C45.8835 21.1688 44.8735 21.6805 44.1633 22.5083L43.1475 23.6921" stroke="black" stroke-linejoin="bevel"/>
<path d="M62.9814 7.99023L60.883 8.5971C59.9402 8.86977 59.1596 9.53377 58.7393 10.4207V10.4207C58.2114 11.5347 57.1256 12.279 55.8962 12.3698L55.3795 12.4079C54.2891 12.4884 53.3261 13.1487 52.8578 14.1367V14.1367C52.3896 15.1247 51.4266 15.785 50.3361 15.8655L49.5946 15.9202C48.5042 16.0007 47.5412 16.6609 47.0729 17.649V17.649C46.6047 18.637 45.6416 19.2972 44.5512 19.3777L43.7976 19.4334C42.674 19.5163 41.6267 20.0334 40.8777 20.8751L39.8418 22.0393" stroke="black" stroke-linejoin="bevel"/>
<path d="M1 38.2921L38.0234 59.228L93.5585 27.8242" stroke="black" stroke-linejoin="bevel"/>
<path d="M1 41.0471L38.0234 62.5339L93.5585 30.3037" stroke="black" stroke-linejoin="bevel"/>
<path d="M35.0757 34.4539C33.9118 35.1258 32.3548 35.4761 30.7707 35.4761C29.1867 35.4761 27.6297 35.1258 26.4658 34.4539C25.2991 33.7803 24.8291 32.9674 24.8291 32.2573C24.8291 31.5472 25.2991 30.7343 26.4658 30.0608C27.6297 29.3889 29.1867 29.0386 30.7707 29.0386C32.3548 29.0386 33.9118 29.3889 35.0757 30.0608C36.2424 30.7343 36.7124 31.5472 36.7124 32.2573C36.7124 32.9674 36.2424 33.7803 35.0757 34.4539Z" stroke="black" stroke-linejoin="bevel"/>
<path fill-rule="evenodd" clip-rule="evenodd" d="M47.5354 34.5051C43.8676 32.7814 38.4616 32.9058 35.0447 34.8783C31.618 36.8566 31.4111 39.9898 34.4241 42.1075L35.7286 41.3511C33.4312 39.6521 33.6362 37.1914 36.3438 35.6283C39.0434 34.0698 43.2888 33.9475 46.231 35.2615L47.5354 34.5051Z" fill="black"/>
</svg>

<svg width="111" height="63" fill="none" xmlns="http://www.w3.org/2000/svg"><path d="M51.411 62.947L110.5 27.824 68.353 2.205 56.37.965l37.188 20.661v8.264L37.775 62.947h13.636z" fill="#C7E0ED"/><path d="M56.535 3.858L1 35.593l37.023 21.156 55.535-31.734L56.535 3.858z" fill="#D4EEFC"/><path d="M92.55 21.709L38.024 52.867 2.008 32.287 56.535 1.13l36.016 20.58z" stroke="#000" stroke-linejoin="bevel"/><path d="M1 35.262l37.023 21.487 55.535-32.23" stroke="#000" stroke-linejoin="bevel"/><path d="M58.023 32.783l2.837-2.2a16.55 16.55 0 015.826-2.897l.746-.202a13.787 13.787 0 006.386-3.797 13.786 13.786 0 014.831-3.276l4.166-1.677M65.46 9.643l-1.99.597a3.371 3.371 0 00-2.097 1.828v0a3.37 3.37 0 01-2.809 1.96l-.383.029a2.98 2.98 0 00-2.482 1.732v0a2.98 2.98 0 01-2.483 1.733l-.613.047a2.98 2.98 0 00-2.483 1.733v0a2.98 2.98 0 01-2.483 1.733l-.666.05a4.113 4.113 0 00-2.808 1.423l-1.015 1.184M62.981 7.99l-2.098.607a3.425 3.425 0 00-2.144 1.824v0a3.425 3.425 0 01-2.843 1.949l-.517.038c-1.09.08-2.053.74-2.521 1.729v0a3.038 3.038 0 01-2.522 1.729l-.741.054c-1.09.08-2.054.74-2.522 1.729v0a3.038 3.038 0 01-2.522 1.729l-.753.055a4.335 4.335 0 00-2.92 1.442l-1.036 1.164" stroke="#000" stroke-linejoin="bevel"/><path d="M1 38.292l37.023 20.936 55.535-31.404" stroke="#000" stroke-linejoin="bevel"/><path d="M1 41.047l37.023 21.487 55.535-32.23m-58.482 4.15c-1.164.672-2.721 1.022-4.305 1.022-1.584 0-3.141-.35-4.305-1.022-1.167-.674-1.637-1.487-1.637-2.197s.47-1.523 1.637-2.196c1.164-.672 2.72-1.022 4.305-1.022 1.584 0 3.14.35 4.305 1.022 1.166.673 1.636 1.486 1.636 2.196 0 .71-.47 1.523-1.636 2.197z" stroke="#000" stroke-linejoin="bevel"/><path fill-rule="evenodd" clip-rule="evenodd" d="M47.535 34.505c-3.667-1.724-9.073-1.6-12.49.373-3.427 1.979-3.634 5.112-.62 7.23l1.304-.757c-2.298-1.699-2.093-4.16.615-5.723 2.7-1.558 6.945-1.68 9.887-.367l1.304-.756z" fill="#000"/></svg>
